; generated by PrusaSlicer 2.2.0+win64 on 2020-03-29 at 00:25:06 UTC

; 

; external perimeters extrusion width = 0.45mm
; perimeters extrusion width = 0.45mm
; infill extrusion width = 0.45mm
; solid infill extrusion width = 0.45mm
; top infill extrusion width = 0.45mm
; first layer extrusion width = 0.42mm

M73 P0 R18
M201 X9000 Y9000 Z500 E10000 ; sets maximum accelerations, mm/sec^2
M203 X500 Y500 Z12 E120 ; sets maximum feedrates, mm/sec
M204 P2000 R1500 T2000 ; sets acceleration (P, T) and retract acceleration (R), mm/sec^2
M205 X10.00 Y10.00 Z0.20 E2.50 ; sets the jerk limits, mm/sec
M205 S0 T0 ; sets the minimum extruding and travel feed rate, mm/sec
M107
M862.3 P "MK2S" ; printer model check
M862.1 P0.4 ; nozzle diameter check
M115 U3.2.3 ; tell printer latest fw version
G90 ; use absolute coordinates
M83 ; extruder relative mode
M204 S2000 T1500 ; MK2 firmware only supports the old M204 format
M104 S240 ; set extruder temp
M140 S35 ; set bed temp
M190 S35 ; wait for bed temp
M109 S240 ; wait for extruder temp
G28 W ; home all without mesh bed level
G80 ; mesh bed leveling
G1 Y-3.0 F1000.0 ; go outside print area
G92 E0.0
G1 X60.0 E9.0  F1000.0 ; intro line
M73 P0 R18
G1 X100.0 E12.5 F1000.0 ; intro line
G92 E0.0
G21 ; set units to millimeters
G90 ; use absolute coordinates
M83 ; use relative distances for extrusion
M900 K0
;BEFORE_LAYER_CHANGE
G92 E0.0
;0.2


G1 Z0.200 F10800.000
;AFTER_LAYER_CHANGE
;0.2
G1 X122.965 Y101.476
M204 S1000
G1 F954.706
G1 X122.965 Y101.763 E0.01032
G1 X122.524 Y101.859 E0.01626
G1 X122.006 Y102.070 E0.02016
G1 X121.636 Y102.291 E0.01553
G1 X121.298 Y102.557 E0.01553
G1 X120.920 Y102.960 E0.01993
G1 X120.672 Y103.320 E0.01576
G1 X120.431 Y103.818 E0.01993
G1 X120.301 Y104.235 E0.01576
G1 X120.218 Y104.788 E0.02016
G1 X120.230 Y105.347 E0.02016
G1 X120.304 Y105.777 E0.01576
G1 X120.480 Y106.302 E0.01993
G1 X120.676 Y106.685 E0.01553
G1 X120.920 Y107.040 E0.01553
G1 X121.298 Y107.443 E0.01993
G1 X121.641 Y107.713 E0.01575
G1 X122.128 Y107.989 E0.02016
G1 X122.654 Y108.178 E0.02016
G1 X123.077 Y108.261 E0.01552
G1 X123.479 Y108.287 E0.01454
G1 X126.654 Y108.285 E0.11449
G1 X127.190 Y108.215 E0.01947
G1 X127.482 Y108.138 E0.01089
G1 X127.872 Y107.989 E0.01507
G1 X128.240 Y107.790 E0.01507
G1 X128.483 Y107.623 E0.01066
G1 X128.795 Y107.354 E0.01484
G1 X128.997 Y107.139 E0.01066
G1 X129.249 Y106.805 E0.01507
G1 X129.455 Y106.441 E0.01507
G1 X129.573 Y106.170 E0.01066
G1 X129.697 Y105.771 E0.01507
G1 X129.769 Y105.353 E0.01530
G1 X129.788 Y104.929 E0.01530
G1 X129.751 Y104.507 E0.01530
G1 X129.661 Y104.092 E0.01530
G1 X129.515 Y103.687 E0.01553
G1 X129.250 Y103.195 E0.02016
G1 X128.900 Y102.750 E0.02039
G1 X128.479 Y102.373 E0.02039
G1 X128.000 Y102.072 E0.02039
G1 X127.476 Y101.859 E0.02039
G1 X127.035 Y101.763 E0.01626
G1 X127.035 Y101.476 E0.01032
G1 X127.263 Y101.511 E0.00829
G1 X127.712 Y101.640 E0.01684
G1 X127.990 Y101.753 E0.01086
G1 X128.258 Y101.891 E0.01086
G1 X128.649 Y102.147 E0.01684
G1 X128.998 Y102.447 E0.01662
G1 X129.310 Y102.795 E0.01684
G1 X129.486 Y103.039 E0.01085
G1 X129.640 Y103.298 E0.01086
G1 X129.838 Y103.728 E0.01707
G1 X129.933 Y104.014 E0.01086
G1 X130.004 Y104.306 E0.01085
G1 X130.064 Y104.770 E0.01685
G1 X130.064 Y105.230 E0.01661
G1 X130.005 Y105.687 E0.01662
G1 X129.887 Y106.133 E0.01662
G1 X129.711 Y106.565 E0.01684
G1 X129.568 Y106.830 E0.01086
G1 X129.403 Y107.082 E0.01086
G1 X129.106 Y107.443 E0.01684
G1 X128.765 Y107.762 E0.01684
G1 X128.524 Y107.943 E0.01085
G1 X128.264 Y108.106 E0.01108
G1 X127.990 Y108.247 E0.01108
G1 X127.706 Y108.363 E0.01108
G1 X127.418 Y108.452 E0.01085
G1 X126.954 Y108.543 E0.01707
G1 X126.653 Y108.569 E0.01087
G1 X123.514 Y108.573 E0.11318
G1 X123.193 Y108.559 E0.01160
G1 X122.894 Y108.520 E0.01085
G1 X122.440 Y108.411 E0.01684
G1 X122.010 Y108.246 E0.01662
G1 X121.599 Y108.024 E0.01684
G1 X121.351 Y107.854 E0.01086
G1 X121.113 Y107.658 E0.01108
G1 X120.894 Y107.443 E0.01108
G1 X120.693 Y107.210 E0.01108
G1 X120.514 Y106.961 E0.01108
G1 X120.356 Y106.697 E0.01108
G1 X120.222 Y106.420 E0.01108
G1 X120.114 Y106.139 E0.01086
G1 X119.993 Y105.681 E0.01707
G1 X119.948 Y105.384 E0.01086
G1 X119.928 Y105.077 E0.01108
G1 X119.935 Y104.770 E0.01108
G1 X119.968 Y104.464 E0.01108
G1 X120.027 Y104.162 E0.01108
G1 X120.110 Y103.873 E0.01086
G1 X120.287 Y103.440 E0.01685
G1 X120.514 Y103.041 E0.01657
G1 X120.792 Y102.672 E0.01666
G1 X121.117 Y102.339 E0.01680
G1 X121.346 Y102.150 E0.01067
G1 X121.742 Y101.891 E0.01707
G1 X122.010 Y101.753 E0.01085
G1 X122.288 Y101.640 E0.01086
G1 X122.737 Y101.511 E0.01684
G1 X122.905 Y101.485 E0.00612
G1 X123.162 Y101.065 F10800.000
G1 F954.706
G1 X123.342 Y101.058 E0.00648
G1 X123.342 Y102.101 E0.03762
G1 X123.124 Y102.114 E0.00787
G1 X122.636 Y102.220 E0.01800
G1 X122.175 Y102.408 E0.01796
G1 X121.851 Y102.602 E0.01362
G1 X121.554 Y102.836 E0.01362
G1 X121.215 Y103.197 E0.01788
G1 X120.999 Y103.511 E0.01370
G1 X120.783 Y103.957 E0.01788
G1 X120.670 Y104.320 E0.01370
G1 X120.595 Y104.812 E0.01796
G1 X120.606 Y105.310 E0.01796
G1 X120.671 Y105.685 E0.01370
G1 X120.828 Y106.155 E0.01788
G1 X121.001 Y106.491 E0.01362
G1 X121.215 Y106.803 E0.01362
G1 X121.554 Y107.164 E0.01788
G1 X121.852 Y107.399 E0.01370
G1 X122.286 Y107.645 E0.01796
G1 X122.755 Y107.814 E0.01796
G1 X123.125 Y107.886 E0.01362
G1 X123.491 Y107.910 E0.01322
G1 X126.630 Y107.908 E0.11317
G1 X127.117 Y107.844 E0.01771
G1 X127.366 Y107.779 E0.00927
G1 X127.714 Y107.645 E0.01346
G1 X128.043 Y107.468 E0.01346
G1 X128.253 Y107.323 E0.00919
G1 X128.534 Y107.082 E0.01338
G1 X128.708 Y106.896 E0.00919
G1 X128.933 Y106.597 E0.01346
G1 X129.117 Y106.273 E0.01346
G1 X129.219 Y106.039 E0.00919
G1 X129.329 Y105.682 E0.01346
G1 X129.394 Y105.313 E0.01354
G1 X129.410 Y104.937 E0.01354
G1 X129.378 Y104.563 E0.01354
G1 X129.297 Y104.196 E0.01354
G1 X129.170 Y103.841 E0.01362
G1 X128.933 Y103.402 E0.01796
G1 X128.624 Y103.009 E0.01804
G1 X128.251 Y102.675 E0.01805
G1 X127.827 Y102.409 E0.01805
G1 X127.364 Y102.220 E0.01804
G1 X126.876 Y102.114 E0.01800
G1 X126.658 Y102.101 E0.00787
G1 X126.658 Y101.058 E0.03762
G1 X126.838 Y101.065 E0.00648
G1 X127.343 Y101.142 E0.01843
G1 X127.835 Y101.283 E0.01845
G1 X128.148 Y101.410 E0.01217
G1 X128.448 Y101.564 E0.01217
G1 X128.876 Y101.845 E0.01845
G1 X129.263 Y102.177 E0.01837
G1 X129.604 Y102.558 E0.01845
G1 X129.802 Y102.832 E0.01217
G1 X129.975 Y103.122 E0.01217
G1 X130.189 Y103.589 E0.01854
G1 X130.296 Y103.909 E0.01217
G1 X130.375 Y104.238 E0.01217
G1 X130.441 Y104.745 E0.01846
G1 X130.441 Y105.255 E0.01837
G1 X130.376 Y105.760 E0.01837
G1 X130.246 Y106.253 E0.01837
G1 X130.052 Y106.727 E0.01845
G1 X129.892 Y107.024 E0.01217
G1 X129.707 Y107.306 E0.01217
G1 X129.381 Y107.701 E0.01845
G1 X129.008 Y108.051 E0.01846
G1 X128.738 Y108.254 E0.01217
G1 X128.450 Y108.435 E0.01225
G1 X128.148 Y108.590 E0.01225
G1 X127.833 Y108.718 E0.01225
G1 X127.511 Y108.818 E0.01217
G1 X127.006 Y108.917 E0.01854
G1 X126.670 Y108.946 E0.01218
G1 X123.507 Y108.950 E0.11406
G1 X123.160 Y108.935 E0.01249
G1 X122.826 Y108.892 E0.01217
G1 X122.328 Y108.772 E0.01845
G1 X121.852 Y108.589 E0.01837
G1 X121.402 Y108.346 E0.01845
G1 X121.124 Y108.155 E0.01217
G1 X120.861 Y107.939 E0.01225
G1 X120.618 Y107.701 E0.01225
G1 X120.397 Y107.444 E0.01225
G1 X120.198 Y107.168 E0.01225
G1 X120.024 Y106.876 E0.01225
G1 X119.876 Y106.570 E0.01225
G1 X119.755 Y106.255 E0.01217
G1 X119.624 Y105.758 E0.01854
G1 X119.573 Y105.424 E0.01217
G1 X119.551 Y105.085 E0.01225
G1 X119.558 Y104.745 E0.01225
G1 X119.595 Y104.407 E0.01225
G1 X119.660 Y104.074 E0.01225
G1 X119.754 Y103.749 E0.01217
G1 X119.947 Y103.275 E0.01846
G1 X120.198 Y102.833 E0.01833
G1 X120.505 Y102.425 E0.01842
G1 X120.862 Y102.060 E0.01841
G1 X121.122 Y101.846 E0.01214
G1 X121.552 Y101.564 E0.01854
G1 X121.852 Y101.410 E0.01217
G1 X122.165 Y101.283 E0.01217
G1 X122.657 Y101.142 E0.01846
G1 X123.103 Y101.074 E0.01627
G1 X123.267 Y101.211 F10800.000
;BEFORE_LAYER_CHANGE
G92 E0.0
;0.35


G1 Z0.350 F10800.000
;AFTER_LAYER_CHANGE
;0.35
M104 S235 ; set temperature
G1 X123.112 Y101.308
M204 S800
G1 F1148.848
G1 X123.112 Y101.885 E0.01729
G1 X122.822 Y101.929 E0.00879
G1 X122.319 Y102.086 E0.01579
G1 X121.939 Y102.270 E0.01263
G1 X121.501 Y102.571 E0.01593
G1 X121.120 Y102.945 E0.01599
G1 X120.868 Y103.280 E0.01257
G1 X120.617 Y103.744 E0.01579
G1 X120.475 Y104.141 E0.01265
G1 X120.373 Y104.662 E0.01591
G1 X120.362 Y105.196 E0.01600
G1 X120.416 Y105.615 E0.01265
G1 X120.563 Y106.125 E0.01591
G1 X120.796 Y106.605 E0.01599
G1 X121.034 Y106.951 E0.01257
G1 X121.394 Y107.335 E0.01579
G1 X121.724 Y107.595 E0.01259
G1 X122.188 Y107.858 E0.01598
G1 X122.690 Y108.039 E0.01599
G1 X123.095 Y108.118 E0.01236
G1 X123.479 Y108.143 E0.01154
G1 X126.642 Y108.140 E0.09477
G1 X127.029 Y108.099 E0.01165
G1 X127.309 Y108.038 E0.00859
G1 X127.681 Y107.913 E0.01175
G1 X127.946 Y107.792 E0.00873
G1 X128.389 Y107.514 E0.01565
G1 X128.694 Y107.251 E0.01208
G1 X128.893 Y107.039 E0.00872
G1 X129.197 Y106.617 E0.01558
G1 X129.385 Y106.250 E0.01236
G1 X129.524 Y105.862 E0.01236
G1 X129.627 Y105.338 E0.01599
G1 X129.638 Y104.804 E0.01599
G1 X129.585 Y104.395 E0.01237
G1 X129.479 Y103.993 E0.01244
G1 X129.270 Y103.512 E0.01571
G1 X129.046 Y103.155 E0.01265
G1 X128.700 Y102.752 E0.01592
G1 X128.287 Y102.413 E0.01601
G1 X127.933 Y102.202 E0.01235
G1 X127.561 Y102.040 E0.01215
G1 X127.171 Y101.928 E0.01215
G1 X126.888 Y101.885 E0.00859
G1 X126.888 Y101.307 E0.01734
G1 X126.972 Y101.314 E0.00251
G1 X127.449 Y101.407 E0.01457
G1 X127.904 Y101.559 E0.01437
G1 X128.341 Y101.772 E0.01457
G1 X128.606 Y101.938 E0.00937
G1 X128.856 Y102.126 E0.00937
G1 X129.211 Y102.459 E0.01457
G1 X129.516 Y102.829 E0.01437
G1 X129.770 Y103.235 E0.01437
G1 X129.973 Y103.677 E0.01457
G1 X130.072 Y103.974 E0.00937
G1 X130.145 Y104.278 E0.00937
G1 X130.208 Y104.760 E0.01457
G1 X130.208 Y105.240 E0.01437
G1 X130.146 Y105.715 E0.01437
G1 X130.024 Y106.179 E0.01437
G1 X129.840 Y106.629 E0.01457
G1 X129.692 Y106.904 E0.00937
G1 X129.520 Y107.166 E0.00937
G1 X129.211 Y107.541 E0.01457
G1 X128.856 Y107.874 E0.01457
G1 X128.606 Y108.062 E0.00937
G1 X128.335 Y108.232 E0.00958
G1 X128.051 Y108.378 E0.00958
G1 X127.754 Y108.498 E0.00958
G1 X127.449 Y108.593 E0.00958
G1 X127.143 Y108.660 E0.00937
G1 X126.653 Y108.713 E0.01479
G1 X123.513 Y108.717 E0.09406
G1 X123.181 Y108.703 E0.00998
G1 X122.870 Y108.663 E0.00937
G1 X122.397 Y108.549 E0.01457
G1 X121.950 Y108.377 E0.01437
G1 X121.522 Y108.146 E0.01457
G1 X121.264 Y107.969 E0.00937
G1 X121.017 Y107.766 E0.00958
G1 X120.789 Y107.542 E0.00958
G1 X120.580 Y107.299 E0.00958
G1 X120.393 Y107.040 E0.00958
G1 X120.229 Y106.765 E0.00958
G1 X120.090 Y106.478 E0.00958
G1 X119.975 Y106.179 E0.00958
G1 X119.887 Y105.871 E0.00958
G1 X119.827 Y105.568 E0.00927
G1 X119.784 Y105.073 E0.01489
G1 X119.791 Y104.760 E0.00937
G1 X119.825 Y104.442 E0.00958
G1 X119.887 Y104.128 E0.00958
G1 X119.975 Y103.821 E0.00958
G1 X120.090 Y103.522 E0.00958
G1 X120.226 Y103.241 E0.00937
G1 X120.484 Y102.829 E0.01457
G1 X120.789 Y102.459 E0.01437
G1 X121.139 Y102.131 E0.01437
G1 X121.531 Y101.849 E0.01447
G1 X121.800 Y101.695 E0.00928
G1 X122.246 Y101.502 E0.01457
G1 X122.707 Y101.370 E0.01436
G1 X123.053 Y101.317 E0.01049
M204 S1000
G1 X123.530 Y100.871 F10800.000
M204 S800
G1 F1148.848
G1 X123.530 Y102.279 E0.04221
G1 X123.266 Y102.285 E0.00791
G1 X122.916 Y102.338 E0.01062
G1 X122.473 Y102.475 E0.01390
G1 X122.150 Y102.632 E0.01074
G1 X121.768 Y102.895 E0.01391
G1 X121.435 Y103.221 E0.01397
G1 X121.220 Y103.506 E0.01068
G1 X121.000 Y103.914 E0.01390
G1 X120.879 Y104.252 E0.01076
G1 X120.790 Y104.707 E0.01389
G1 X120.780 Y105.173 E0.01397
G1 X120.826 Y105.529 E0.01076
G1 X120.955 Y105.975 E0.01389
G1 X121.158 Y106.394 E0.01397
G1 X121.360 Y106.688 E0.01068
G1 X121.677 Y107.027 E0.01390
G1 X121.958 Y107.247 E0.01070
G1 X122.363 Y107.477 E0.01395
G1 X122.802 Y107.635 E0.01397
G1 X123.149 Y107.703 E0.01061
G1 X123.493 Y107.725 E0.01032
G1 X126.620 Y107.723 E0.09369
G1 X126.962 Y107.686 E0.01031
G1 X127.198 Y107.634 E0.00724
G1 X127.527 Y107.524 E0.01039
G1 X127.747 Y107.423 E0.00725
G1 X128.140 Y107.177 E0.01390
G1 X128.405 Y106.949 E0.01046
G1 X128.570 Y106.773 E0.00724
G1 X128.839 Y106.399 E0.01382
G1 X129.001 Y106.083 E0.01061
G1 X129.120 Y105.750 E0.01061
G1 X129.210 Y105.293 E0.01397
G1 X129.220 Y104.827 E0.01397
G1 X129.175 Y104.475 E0.01061
G1 X129.083 Y104.131 E0.01068
G1 X128.900 Y103.707 E0.01382
G1 X128.709 Y103.403 E0.01076
G1 X128.407 Y103.052 E0.01389
G1 X128.046 Y102.755 E0.01398
G1 X127.743 Y102.574 E0.01059
G1 X127.420 Y102.434 E0.01054
G1 X127.082 Y102.337 E0.01054
G1 X126.734 Y102.285 E0.01054
G1 X126.470 Y102.279 E0.00791
G1 X126.470 Y100.867 E0.04232
G1 X127.030 Y100.899 E0.01680
G1 X127.556 Y101.003 E0.01606
G1 X128.062 Y101.172 E0.01598
G1 X128.544 Y101.406 E0.01606
G1 X128.843 Y101.593 E0.01059
G1 X129.125 Y101.806 E0.01059
G1 X129.516 Y102.172 E0.01606
G1 X129.855 Y102.584 E0.01598
G1 X130.138 Y103.036 E0.01598
G1 X130.362 Y103.523 E0.01606
G1 X130.474 Y103.858 E0.01059
G1 X130.557 Y104.202 E0.01059
G1 X130.626 Y104.733 E0.01606
G1 X130.626 Y105.267 E0.01598
G1 X130.557 Y105.796 E0.01598
G1 X130.421 Y106.311 E0.01598
G1 X130.219 Y106.808 E0.01606
G1 X130.051 Y107.119 E0.01059
G1 X129.857 Y107.414 E0.01059
G1 X129.516 Y107.828 E0.01606
G1 X129.125 Y108.194 E0.01606
G1 X128.843 Y108.407 E0.01059
G1 X128.542 Y108.596 E0.01066
G1 X128.225 Y108.758 E0.01066
G1 X127.896 Y108.892 E0.01066
G1 X127.556 Y108.998 E0.01066
G1 X127.211 Y109.073 E0.01059
G1 X126.675 Y109.131 E0.01613
G1 X123.505 Y109.135 E0.09500
G1 X123.145 Y109.119 E0.01080
G1 X122.794 Y109.074 E0.01059
G1 X122.273 Y108.948 E0.01606
G1 X121.775 Y108.758 E0.01598
G1 X121.304 Y108.503 E0.01606
G1 X121.012 Y108.303 E0.01059
G1 X120.738 Y108.077 E0.01066
G1 X120.483 Y107.828 E0.01066
G1 X120.252 Y107.558 E0.01066
G1 X120.044 Y107.269 E0.01066
G1 X119.861 Y106.964 E0.01066
G1 X119.706 Y106.644 E0.01066
G1 X119.579 Y106.312 E0.01066
G1 X119.480 Y105.970 E0.01066
G1 X119.413 Y105.626 E0.01048
G1 X119.366 Y105.086 E0.01624
G1 X119.374 Y104.733 E0.01059
G1 X119.412 Y104.380 E0.01066
G1 X119.480 Y104.030 E0.01066
G1 X119.579 Y103.688 E0.01066
G1 X119.706 Y103.356 E0.01066
G1 X119.860 Y103.038 E0.01059
G1 X120.145 Y102.584 E0.01606
G1 X120.484 Y102.172 E0.01598
G1 X120.873 Y101.807 E0.01598
G1 X121.305 Y101.496 E0.01595
G1 X121.613 Y101.321 E0.01063
G1 X122.105 Y101.108 E0.01605
G1 X122.617 Y100.961 E0.01598
G1 X123.145 Y100.881 E0.01600
G1 X123.470 Y100.872 E0.00973
M204 S1000
G1 X123.341 Y101.224 F10800.000
G1 X127.097 Y101.629
G1 F2400.000
G1 X127.375 Y101.687 E0.00311
G1 X127.794 Y101.827 E0.00484
G1 X128.066 Y101.952 E0.00328
G1 X128.447 Y102.176 E0.00483
G1 X128.668 Y102.349 E0.00308
G1 X128.999 Y102.657 E0.00495
G1 X129.279 Y102.990 E0.00476
G1 X129.525 Y103.385 E0.00509
G1 X129.746 Y103.895 E0.00609
G1 X129.864 Y104.330 E0.00494
G1 X129.923 Y104.783 E0.00500
G1 X129.919 Y105.221 E0.00480
G1 X129.860 Y105.659 E0.00484
G1 X129.795 Y105.942 E0.00318
G1 X129.642 Y106.367 E0.00494
G1 X129.446 Y106.758 E0.00479
G1 X129.285 Y106.993 E0.00312
G1 X129.001 Y107.344 E0.00495
G1 X128.562 Y107.740 E0.00647
G1 X128.077 Y108.045 E0.00627
G1 X127.782 Y108.180 E0.00355
G1 X127.381 Y108.315 E0.00463
G1 X127.079 Y108.380 E0.00339
G1 X126.637 Y108.427 E0.00487
G1 X123.519 Y108.430 E0.03414
G1 X122.923 Y108.378 E0.00656
G1 X122.483 Y108.272 E0.00495
G1 X122.075 Y108.120 E0.00477
G1 X121.570 Y107.834 E0.00635
G1 X121.205 Y107.550 E0.00507
G1 X120.805 Y107.122 E0.00641
G1 X120.553 Y106.753 E0.00489
G1 X120.356 Y106.362 E0.00480
G1 X120.250 Y106.087 E0.00323
G1 X120.139 Y105.678 E0.00464
G1 X120.080 Y105.217 E0.00509
G1 X120.090 Y104.638 E0.00634
G1 X120.202 Y104.060 E0.00645
G1 X120.359 Y103.622 E0.00509
G1 X120.481 Y103.382 E0.00295
G1 X120.719 Y102.998 E0.00495
G1 X121.001 Y102.657 E0.00484
G1 X121.315 Y102.356 E0.00477
G1 X121.687 Y102.092 E0.00499
G1 X121.929 Y101.954 E0.00305
G1 X122.220 Y101.821 E0.00350
G1 X122.752 Y101.653 E0.00612
G1 X122.903 Y101.629 E0.00167
