; generated by PrusaSlicer 2.2.0+win64 on 2020-03-28 at 18:40:27 UTC


;
;

;
;
; 

; external perimeters extrusion width = 0.45mm
; perimeters extrusion width = 0.45mm
; infill extrusion width = 0.45mm
; solid infill extrusion width = 0.45mm
; top infill extrusion width = 0.40mm
; first layer extrusion width = 0.42mm

M73 P0 R113
M201 X1250 Y1250 Z400 E5000 ; sets maximum accelerations, mm/sec^2
M203 X180 Y180 Z12 E80 ; sets maximum feedrates, mm/sec
M204 P1250 R1250 T1250 ; sets acceleration (P, T) and retract acceleration (R), mm/sec^2
M205 X8.00 Y8.00 Z2.00 E10.00 ; sets the jerk limits, mm/sec
M205 S0 T0 ; sets the minimum extruding and travel feed rate, mm/sec
M107
G90 ; use absolute coordinates
M83 ; extruder relative mode
M104 S170 ; set extruder temp for bed leveling
M140 S60 ; set bed temp
M109 R170 ; wait for bed leveling temp
M190 S60 ; wait for bed temp
G28 ; home all without mesh bed level
G29 ; mesh bed leveling 
M104 S215 ; set extruder temp
G92 E0.0
G1 Y-2.0 X179 F2400
G1 Z3 F720
M109 S215 ; wait for extruder temp

; intro line
G1 X170 F1000
G1 Z0.2 F720
G1 X110.0 E8.0 F900
M73 P0 R113
G1 X40.0 E10.0 F700
G92 E0.0
G21 ; set units to millimeters
G90 ; use absolute coordinates
M83 ; use relative distances for extrusion
M900 K0.2 ; Filament gcode
;BEFORE_LAYER_CHANGE
G92 E0.0
;0.2


G1 Z0.200 F9000.000
;AFTER_LAYER_CHANGE
;0.2
G1 E-3.20000 F4200.00000
G1 Z0.400 F9000.000
G1 X68.961 Y63.239
G1 Z0.200
G1 E3.20000 F2400.00000
M204 S800
G1 F1200.000
G1 X69.638 Y62.871 E0.02414
G1 X70.373 Y62.740 E0.02343
G1 X100.008 Y62.745 E0.92918
G1 X101.209 Y62.835 E0.03778
G1 X102.687 Y63.220 E0.04788
G1 X103.313 Y63.509 E0.02161
G1 X103.853 Y63.884 E0.02062
G1 X104.338 Y64.345 E0.02096
G1 X104.901 Y65.182 E0.03164
G1 X105.087 Y65.705 E0.01740
G1 X105.201 Y66.487 E0.02477
G1 X105.200 Y113.584 E1.47670
G1 X105.012 Y114.555 E0.03102
G1 X104.564 Y115.377 E0.02934
G1 X103.883 Y116.091 E0.03094
G1 X103.094 Y116.615 E0.02970
G1 X101.497 Y117.123 E0.05252
G1 X100.046 Y117.255 E0.04568
G1 X70.357 Y117.260 E0.93089
G1 X69.669 Y117.139 E0.02190
G1 X69.046 Y116.824 E0.02190
G1 X68.560 Y116.366 E0.02095
G1 X68.144 Y115.693 E0.02480
G1 X67.743 Y114.573 E0.03730
G1 X67.623 Y113.522 E0.03319
G1 X67.623 Y66.496 E1.47445
G1 X67.681 Y65.751 E0.02343
G1 X67.950 Y64.744 E0.03268
G1 X68.436 Y63.804 E0.03320
G1 X68.920 Y63.283 E0.02230
M204 S1250
G1 E-2.24000 F4200.00000
G1 F7200.000
G1 X69.638 Y62.871 E-0.45824
G1 X70.373 Y62.740 E-0.41411
G1 X70.445 Y62.740 E-0.03965
G1 E-0.04800 F4200.00000
G1 Z0.400 F9000.000
G1 X70.410 Y93.410
G1 Z0.200
G1 E3.20000 F2400.00000
M204 S800
G1 F1200.000
G1 X100.920 Y93.410 E0.95664
G1 X100.920 Y113.433 E0.62781
G1 X100.885 Y113.539 E0.00348
G1 X100.820 Y113.603 E0.00287
G1 X100.761 Y113.623 E0.00195
G1 X99.960 Y113.779 E0.02560
G1 X70.433 Y113.787 E0.92580
G1 X70.410 Y113.492 E0.00928
G1 X70.410 Y93.470 E0.62777
M204 S1250
G1 X70.756 Y93.610 F9000.000
G1 X70.787 Y93.787
M204 S800
G1 F1200.000
G1 X100.543 Y93.787 E0.93300
G1 X100.543 Y113.281 E0.61121
G1 X99.923 Y113.402 E0.01981
G1 X70.787 Y113.410 E0.91356
G1 X70.787 Y93.847 E0.61338
M204 S1250
G1 E-2.24000 F4200.00000
G1 F7200.000
G1 X72.433 Y93.844 E-0.91200
G1 E-0.04800 F4200.00000
G1 Z0.400 F9000.000
G1 X100.430 Y94.670
G1 Z0.200
G1 E3.20000 F2400.00000
M204 S800
G1 F1200.000
G1 X99.830 Y94.070 E0.02688
G1 X99.291 Y94.070 E0.01705
G1 X100.261 Y95.039 E0.04340
G1 X100.261 Y95.578 E0.01705
G1 X98.753 Y94.070 E0.06751
G1 X98.214 Y94.070 E0.01705
G1 X100.261 Y96.116 E0.09162
G1 X100.261 Y96.655 E0.01705
G1 X97.676 Y94.070 E0.11573
G1 X97.137 Y94.070 E0.01705
G1 X100.261 Y97.193 E0.13984
G1 X100.261 Y97.732 E0.01705
G1 X96.599 Y94.070 E0.16395
G1 X96.060 Y94.070 E0.01705
G1 X100.261 Y98.270 E0.18806
G1 X100.261 Y98.809 E0.01705
G1 X95.522 Y94.070 E0.21217
G1 X94.984 Y94.070 E0.01705
G1 X100.261 Y99.347 E0.23628
G1 X100.261 Y99.886 E0.01705
G1 X94.445 Y94.070 E0.26039
G1 X93.907 Y94.070 E0.01705
G1 X100.261 Y100.424 E0.28451
G1 X100.261 Y100.963 E0.01705
G1 X93.368 Y94.070 E0.30862
G1 X92.830 Y94.070 E0.01705
G1 X100.261 Y101.501 E0.33273
G1 X100.261 Y102.040 E0.01705
G1 X92.291 Y94.070 E0.35684
G1 X91.753 Y94.070 E0.01705
G1 X100.261 Y102.578 E0.38095
G1 X100.261 Y103.117 E0.01705
G1 X91.214 Y94.070 E0.40506
G1 X90.676 Y94.070 E0.01705
G1 X100.261 Y103.655 E0.42917
G1 X100.261 Y104.193 E0.01705
G1 X90.137 Y94.070 E0.45328
G1 X89.599 Y94.070 E0.01705
G1 X100.261 Y104.732 E0.47739
G1 X100.261 Y105.270 E0.01705
G1 X89.060 Y94.070 E0.50150
G1 X88.522 Y94.070 E0.01705
G1 X100.261 Y105.809 E0.52561
G1 X100.261 Y106.347 E0.01705
G1 X87.983 Y94.070 E0.54972
G1 X87.445 Y94.070 E0.01705
G1 X100.261 Y106.886 E0.57384
G1 X100.261 Y107.424 E0.01705
G1 X86.906 Y94.070 E0.59795
G1 X86.368 Y94.070 E0.01705
G1 X100.261 Y107.963 E0.62206
G1 X100.261 Y108.501 E0.01705
G1 X85.829 Y94.070 E0.64617
G1 X85.291 Y94.070 E0.01705
G1 X100.261 Y109.040 E0.67028
G1 X100.261 Y109.578 E0.01705
G1 X84.752 Y94.070 E0.69439
G1 X84.214 Y94.070 E0.01705
G1 X100.261 Y110.117 E0.71850
G1 X100.261 Y110.655 E0.01705
G1 X83.675 Y94.070 E0.74261
G1 X83.137 Y94.070 E0.01705
G1 X100.261 Y111.194 E0.76672
G1 X100.261 Y111.732 E0.01705
G1 X82.598 Y94.070 E0.79083
G1 X82.060 Y94.070 E0.01705
G1 X100.261 Y112.271 E0.81494
G1 X100.261 Y112.809 E0.01705
G1 X81.521 Y94.070 E0.83905
G1 X80.983 Y94.070 E0.01705
G1 X100.010 Y113.097 E0.85194
G1 X99.896 Y113.119 E0.00368
G1 X99.494 Y113.120 E0.01273
G1 X80.444 Y94.070 E0.85295
G1 X79.906 Y94.070 E0.01705
G1 X98.956 Y113.120 E0.85295
G1 X98.417 Y113.120 E0.01704
G1 X79.367 Y94.070 E0.85296
G1 X78.829 Y94.070 E0.01705
G1 X97.879 Y113.120 E0.85297
G1 X97.341 Y113.120 E0.01704
G1 X78.290 Y94.070 E0.85297
M73 P1 R112
G1 X77.752 Y94.070 E0.01705
G1 X96.802 Y113.120 E0.85298
G1 X96.264 Y113.120 E0.01704
G1 X77.213 Y94.070 E0.85298
G1 X76.675 Y94.070 E0.01705
G1 X95.726 Y113.121 E0.85299
G1 X95.187 Y113.121 E0.01704
G1 X76.137 Y94.070 E0.85300
G1 X75.598 Y94.070 E0.01705
G1 X94.649 Y113.121 E0.85300
G1 X94.110 Y113.121 E0.01704
G1 X75.060 Y94.070 E0.85301
G1 X74.521 Y94.070 E0.01705
G1 X93.572 Y113.121 E0.85302
G1 X93.034 Y113.121 E0.01704
G1 X73.983 Y94.070 E0.85302
G1 X73.444 Y94.070 E0.01705
G1 X92.495 Y113.121 E0.85303
G1 X91.957 Y113.122 E0.01704
G1 X72.906 Y94.070 E0.85304
G1 X72.367 Y94.070 E0.01705
G1 X91.419 Y113.122 E0.85304
G1 X90.880 Y113.122 E0.01704
G1 X71.829 Y94.070 E0.85305
G1 X71.290 Y94.070 E0.01705
G1 X90.342 Y113.122 E0.85306
G1 X89.804 Y113.122 E0.01704
G1 X71.070 Y94.388 E0.83883
G1 X71.070 Y94.926 E0.01705
G1 X89.265 Y113.122 E0.81472
G1 X88.727 Y113.122 E0.01704
G1 X71.070 Y95.465 E0.79062
G1 X71.070 Y96.003 E0.01705
G1 X88.189 Y113.123 E0.76651
G1 X87.650 Y113.123 E0.01704
G1 X71.070 Y96.542 E0.74241
G1 X71.070 Y97.080 E0.01705
G1 X87.112 Y113.123 E0.71830
G1 X86.574 Y113.123 E0.01704
G1 X71.070 Y97.619 E0.69420
G1 X71.070 Y98.157 E0.01705
G1 X86.035 Y113.123 E0.67009
G1 X85.497 Y113.123 E0.01704
G1 X71.070 Y98.696 E0.64599
G1 X71.070 Y99.234 E0.01705
G1 X84.959 Y113.123 E0.62189
G1 X84.420 Y113.124 E0.01704
G1 X71.070 Y99.773 E0.59778
G1 X71.070 Y100.311 E0.01705
G1 X83.882 Y113.124 E0.57368
G1 X83.344 Y113.124 E0.01704
G1 X71.070 Y100.850 E0.54957
G1 X71.070 Y101.388 E0.01705
G1 X82.805 Y113.124 E0.52547
G1 X82.267 Y113.124 E0.01704
G1 X71.070 Y101.927 E0.50136
G1 X71.070 Y102.465 E0.01705
G1 X81.729 Y113.124 E0.47726
G1 X81.190 Y113.124 E0.01704
G1 X71.070 Y103.004 E0.45315
G1 X71.070 Y103.542 E0.01705
G1 X80.652 Y113.125 E0.42905
G1 X80.114 Y113.125 E0.01704
G1 X71.070 Y104.081 E0.40495
G1 X71.070 Y104.619 E0.01705
G1 X79.575 Y113.125 E0.38084
G1 X79.037 Y113.125 E0.01704
G1 X71.070 Y105.158 E0.35674
G1 X71.070 Y105.696 E0.01705
G1 X78.499 Y113.125 E0.33263
G1 X77.960 Y113.125 E0.01704
G1 X71.070 Y106.235 E0.30853
G1 X71.070 Y106.773 E0.01705
G1 X77.422 Y113.125 E0.28442
G1 X76.884 Y113.126 E0.01704
G1 X71.070 Y107.312 E0.26032
G1 X71.070 Y107.850 E0.01705
G1 X76.345 Y113.126 E0.23622
G1 X75.807 Y113.126 E0.01704
G1 X71.070 Y108.389 E0.21211
G1 X71.070 Y108.927 E0.01705
G1 X75.269 Y113.126 E0.18801
G1 X74.730 Y113.126 E0.01704
G1 X71.070 Y109.466 E0.16390
G1 X71.070 Y110.004 E0.01705
G1 X74.192 Y113.126 E0.13980
G1 X73.653 Y113.126 E0.01704
G1 X71.070 Y110.543 E0.11569
G1 X71.070 Y111.081 E0.01705
G1 X73.115 Y113.127 E0.09159
G1 X72.577 Y113.127 E0.01704
G1 X71.070 Y111.620 E0.06748
G1 X71.070 Y112.158 E0.01705
G1 X72.038 Y113.127 E0.04338
G1 X71.500 Y113.127 E0.01704
G1 X70.900 Y112.527 E0.02687
M204 S1250
G1 E-2.24000 F4200.00000
G1 F7200.000
G1 X71.500 Y113.127 E-0.47037
G1 X72.038 Y113.127 E-0.29833
G1 X71.856 Y112.944 E-0.14330
G1 E-0.04800 F4200.00000
G1 Z0.400 F9000.000
G1 X70.410 Y86.590
G1 Z0.200
G1 E3.20000 F2400.00000
M204 S800
G1 F1200.000
G1 X70.410 Y66.508 E0.62965
G1 X70.433 Y66.213 E0.00928
G1 X99.960 Y66.221 E0.92580
G1 X100.761 Y66.378 E0.02560
G1 X100.820 Y66.397 E0.00195
G1 X100.885 Y66.461 E0.00287
G1 X100.920 Y66.567 E0.00348
G1 X100.920 Y86.590 E0.62781
G1 X70.470 Y86.590 E0.95476
M204 S1250
G1 X70.539 Y86.212 F9000.000
G1 X70.787 Y86.213
M204 S800
G1 F1200.000
G1 X70.787 Y66.590 E0.61526
G1 X99.923 Y66.598 E0.91355
G1 X100.543 Y66.719 E0.01981
G1 X100.543 Y86.213 E0.61121
G1 X70.847 Y86.213 E0.93112
M204 S1250
G1 E-2.24000 F4200.00000
G1 F7200.000
G1 X70.842 Y84.567 E-0.91200
G1 E-0.04800 F4200.00000
G1 Z0.400 F9000.000
G1 X100.430 Y67.584
G1 Z0.200
G1 E3.20000 F2400.00000
M204 S800
G1 F1200.000
G1 X99.727 Y66.881 E0.03142
G1 X99.190 Y66.880 E0.01698
G1 X100.261 Y67.952 E0.04785
G1 X100.261 Y68.489 E0.01697
G1 X98.652 Y66.880 E0.07186
G1 X98.115 Y66.880 E0.01698
G1 X100.261 Y69.026 E0.09587
G1 X100.261 Y69.563 E0.01697
G1 X97.577 Y66.880 E0.11988
G1 X97.040 Y66.879 E0.01698
G1 X100.261 Y70.101 E0.14389
G1 X100.261 Y70.638 E0.01697
G1 X96.502 Y66.879 E0.16790
G1 X95.965 Y66.879 E0.01698
G1 X100.261 Y71.175 E0.19191
G1 X100.261 Y71.712 E0.01697
G1 X95.427 Y66.879 E0.21593
G1 X94.890 Y66.879 E0.01698
G1 X100.261 Y72.250 E0.23994
G1 X100.261 Y72.787 E0.01697
G1 X94.352 Y66.878 E0.26395
G1 X93.815 Y66.878 E0.01698
G1 X100.261 Y73.324 E0.28796
G1 X100.261 Y73.861 E0.01697
G1 X93.277 Y66.878 E0.31197
G1 X92.740 Y66.878 E0.01698
G1 X100.261 Y74.399 E0.33598
G1 X100.261 Y74.936 E0.01697
G1 X92.202 Y66.877 E0.35999
G1 X91.665 Y66.877 E0.01698
G1 X100.261 Y75.473 E0.38400
M73 P1 R111
G1 X100.261 Y76.010 E0.01697
G1 X91.127 Y66.877 E0.40801
G1 X90.590 Y66.877 E0.01698
G1 X100.261 Y76.548 E0.43203
G1 X100.261 Y77.085 E0.01697
G1 X90.052 Y66.876 E0.45604
G1 X89.515 Y66.876 E0.01698
G1 X100.261 Y77.622 E0.48005
G1 X100.261 Y78.159 E0.01697
G1 X88.977 Y66.876 E0.50406
G1 X88.440 Y66.876 E0.01698
G1 X100.261 Y78.697 E0.52807
G1 X100.261 Y79.234 E0.01697
G1 X87.902 Y66.875 E0.55208
G1 X87.365 Y66.875 E0.01698
G1 X100.261 Y79.771 E0.57609
G1 X100.261 Y80.308 E0.01697
G1 X86.827 Y66.875 E0.60010
G1 X86.290 Y66.875 E0.01698
G1 X100.261 Y80.846 E0.62411
G1 X100.261 Y81.383 E0.01697
G1 X85.752 Y66.874 E0.64812
G1 X85.215 Y66.874 E0.01698
G1 X100.261 Y81.920 E0.67214
G1 X100.261 Y82.457 E0.01697
G1 X84.677 Y66.874 E0.69615
G1 X84.140 Y66.874 E0.01698
G1 X100.261 Y82.995 E0.72016
G1 X100.261 Y83.532 E0.01697
G1 X83.602 Y66.874 E0.74417
G1 X83.065 Y66.873 E0.01698
G1 X100.261 Y84.069 E0.76818
G1 X100.261 Y84.606 E0.01697
G1 X82.527 Y66.873 E0.79219
G1 X81.990 Y66.873 E0.01697
G1 X100.261 Y85.144 E0.81619
G1 X100.261 Y85.681 E0.01697
G1 X81.453 Y66.873 E0.84019
G1 X80.916 Y66.873 E0.01697
G1 X99.973 Y85.930 E0.85133
G1 X99.435 Y85.930 E0.01697
G1 X80.378 Y66.873 E0.85133
G1 X79.841 Y66.873 E0.01697
G1 X98.898 Y85.930 E0.85133
G1 X98.361 Y85.930 E0.01697
G1 X79.304 Y66.873 E0.85133
G1 X78.767 Y66.873 E0.01697
G1 X97.824 Y85.930 E0.85133
G1 X97.286 Y85.930 E0.01697
G1 X78.229 Y66.873 E0.85133
G1 X77.692 Y66.873 E0.01697
G1 X96.749 Y85.930 E0.85133
G1 X96.212 Y85.930 E0.01697
G1 X77.155 Y66.873 E0.85133
G1 X76.617 Y66.873 E0.01697
G1 X95.675 Y85.930 E0.85133
G1 X95.137 Y85.930 E0.01697
G1 X76.080 Y66.873 E0.85134
G1 X75.543 Y66.873 E0.01697
G1 X94.600 Y85.930 E0.85134
G1 X94.063 Y85.930 E0.01697
G1 X75.006 Y66.873 E0.85134
G1 X74.468 Y66.873 E0.01697
G1 X93.526 Y85.930 E0.85134
G1 X92.988 Y85.930 E0.01697
G1 X73.931 Y66.873 E0.85134
G1 X73.394 Y66.873 E0.01697
G1 X92.451 Y85.930 E0.85134
G1 X91.914 Y85.930 E0.01697
G1 X72.857 Y66.873 E0.85134
G1 X72.319 Y66.873 E0.01697
G1 X91.377 Y85.930 E0.85134
G1 X90.839 Y85.930 E0.01697
G1 X71.782 Y66.873 E0.85134
G1 X71.245 Y66.873 E0.01697
G1 X90.302 Y85.930 E0.85134
G1 X89.765 Y85.930 E0.01697
G1 X71.070 Y67.235 E0.83517
G1 X71.070 Y67.772 E0.01697
G1 X89.228 Y85.930 E0.81117
G1 X88.690 Y85.930 E0.01697
G1 X71.070 Y68.309 E0.78717
G1 X71.070 Y68.847 E0.01697
G1 X88.153 Y85.930 E0.76317
G1 X87.616 Y85.930 E0.01697
G1 X71.070 Y69.384 E0.73917
G1 X71.070 Y69.921 E0.01697
G1 X87.079 Y85.930 E0.71517
G1 X86.541 Y85.930 E0.01697
G1 X71.070 Y70.458 E0.69117
G1 X71.070 Y70.996 E0.01697
G1 X86.004 Y85.930 E0.66716
G1 X85.467 Y85.930 E0.01697
G1 X71.070 Y71.533 E0.64316
G1 X71.070 Y72.070 E0.01697
G1 X84.930 Y85.930 E0.61916
G1 X84.392 Y85.930 E0.01697
G1 X71.070 Y72.607 E0.59516
G1 X71.070 Y73.145 E0.01697
G1 X83.855 Y85.930 E0.57116
G1 X83.318 Y85.930 E0.01697
G1 X71.070 Y73.682 E0.54716
M73 P2 R110
G1 X71.070 Y74.219 E0.01697
G1 X82.781 Y85.930 E0.52316
G1 X82.243 Y85.930 E0.01697
G1 X71.070 Y74.756 E0.49916
G1 X71.070 Y75.294 E0.01697
G1 X81.706 Y85.930 E0.47516
G1 X81.169 Y85.930 E0.01697
G1 X71.070 Y75.831 E0.45116
G1 X71.070 Y76.368 E0.01697
G1 X80.632 Y85.930 E0.42716
G1 X80.094 Y85.930 E0.01697
G1 X71.070 Y76.905 E0.40316
G1 X71.070 Y77.443 E0.01697
G1 X79.557 Y85.930 E0.37916
G1 X79.020 Y85.930 E0.01697
G1 X71.070 Y77.980 E0.35516
G1 X71.070 Y78.517 E0.01697
G1 X78.483 Y85.930 E0.33116
G1 X77.945 Y85.930 E0.01697
G1 X71.070 Y79.054 E0.30716
G1 X71.070 Y79.592 E0.01697
G1 X77.408 Y85.930 E0.28316
G1 X76.871 Y85.930 E0.01697
G1 X71.070 Y80.129 E0.25916
G1 X71.070 Y80.666 E0.01697
G1 X76.334 Y85.930 E0.23516
G1 X75.796 Y85.930 E0.01697
G1 X71.070 Y81.203 E0.21116
G1 X71.070 Y81.741 E0.01697
G1 X75.259 Y85.930 E0.18716
G1 X74.722 Y85.930 E0.01697
G1 X71.070 Y82.278 E0.16316
G1 X71.070 Y82.815 E0.01697
G1 X74.185 Y85.930 E0.13916
G1 X73.647 Y85.930 E0.01697
G1 X71.070 Y83.352 E0.11516
G1 X71.070 Y83.890 E0.01697
G1 X73.110 Y85.930 E0.09115
G1 X72.573 Y85.930 E0.01697
G1 X71.070 Y84.427 E0.06715
G1 X71.070 Y84.964 E0.01697
G1 X72.036 Y85.930 E0.04315
G1 X71.498 Y85.930 E0.01697
G1 X70.900 Y85.332 E0.02673
M204 S1250
M106 S255
;BEFORE_LAYER_CHANGE
G92 E0.0
;0.342506


G1 Z0.343 F9000.000
;AFTER_LAYER_CHANGE
;0.342506
M104 S210 ; set temperature
G1 E-3.20000 F4200.00000
G1 Z0.543 F9000.000
G1 X68.961 Y63.239
G1 Z0.343
G1 E3.20000 F2400.00000
G1 X69.638 Y62.871 E0.01776
G1 X70.373 Y62.740 E0.01724
G1 X100.008 Y62.745 E0.68373
G1 X101.209 Y62.835 E0.02780
G1 X102.687 Y63.220 E0.03524
G1 X103.313 Y63.509 E0.01590
G1 X103.853 Y63.884 E0.01517
G1 X104.338 Y64.345 E0.01543
G1 X104.901 Y65.182 E0.02328
G1 X105.087 Y65.705 E0.01280
G1 X105.201 Y66.487 E0.01822
G1 X105.200 Y113.584 E1.08662
G1 X105.012 Y114.555 E0.02283
G1 X104.564 Y115.377 E0.02159
G1 X103.883 Y116.091 E0.02277
G1 X103.094 Y116.615 E0.02186
G1 X101.497 Y117.123 E0.03865
G1 X100.046 Y117.255 E0.03361
G1 X70.357 Y117.260 E0.68499
G1 X69.669 Y117.139 E0.01611
G1 X69.046 Y116.824 E0.01611
G1 X68.560 Y116.366 E0.01542
G1 X68.144 Y115.693 E0.01825
G1 X67.743 Y114.573 E0.02745
G1 X67.623 Y113.522 E0.02442
G1 X67.623 Y66.496 E1.08497
G1 X67.681 Y65.751 E0.01724
G1 X67.950 Y64.744 E0.02405
G1 X68.436 Y63.804 E0.02443
G1 X68.920 Y63.283 E0.01641
G1 E-2.24000 F4200.00000
G1 F7200.000
G1 X69.638 Y62.871 E-0.45824
G1 X70.373 Y62.740 E-0.41411
G1 X70.445 Y62.740 E-0.03965
G1 E-0.04800 F4200.00000
G1 Z0.543 F9000.000
G1 X70.644 Y93.645
G1 Z0.343
G1 E3.20000 F2400.00000
M204 S800
G1 X101.631 Y93.645 E0.77001
G1 X101.631 Y113.436 E0.49179
G1 X101.602 Y113.542 E0.00274
G1 X101.344 Y113.693 E0.00743
G1 X100.865 Y113.888 E0.01286
G1 X99.967 Y113.981 E0.02244
G1 X70.713 Y113.988 E0.72693
G1 X70.655 Y113.694 E0.00745
G1 X70.644 Y113.483 E0.00524
